X:1
T:Title
%%score { ( 1 3 ) | ( 2 4 ) }
L:1/8
Q:1/4=100
M:6/8
K:F
V:1 treble nm="Grand Piano"
V:3 treble 
V:2 bass 
V:4 bass 
V:1
 [DF]2 [DF] [DF]>[^CE][DF] | G2 G G2 G | A2 A A>Bc | dB[^CG] .[DF]3 | [DF]2 [DF] [DF]>[^CE][DF] | %5
w: Adam~Geibel * * * *|||||
 G2 G G2 G | [EG]2 [EG] [EG]2 [CEB] |[M:15/16] A->ABc3/2- c3 |[M:3/4] [Dd]2 [Dc]B A[DG] | %9
w: ||||
 [_EA]2 [EG] G2 F | _e2 dc =Bc | [Dd]2 [DB] .[DF]3 | B2 c B2 c | B2 c B2 c | d2 cB AG | %15
w: ||||||
 F2 c .[DB]3 |] %16
w: |
V:2
 [B,,B,]2 [B,,B,] [B,,B,]2 [B,,B,] | [_E,B,_E]2 [E,B,E] [E,B,E]2 [E,B,E] | %2
 [F,_E]2 [F,E] [F,E]2 [F,A,E] | [B,,B,]2 [B,,E,] .[B,,F,]3 | [B,,B,]2 [B,,B,] [B,,B,]2 [B,,B,] | %5
 [_E,B,_E]2 [E,B,E] [E,B,E]2 [E,B,E] | [C,C]2 [C,C] z z/ A/C, | %7
[M:15/16] [F,CF]->[F,CF][F,G,E][F,A,_E]3/2- [F,A,E]3 |[M:3/4] [B,,F,]2 [B,,F,] [B,,F,]2 [B,,F,] | %9
 [C,F,]2 [C,B,] [F,A,_E]2 [F,A,E] | [F,A,_E]2 [F,A,E] [F,A,E]2 [F,A,E] | %11
 [B,,B,]2 [B,,F,] .[B,,B,]3 | [B,DF]2 [B,DF] [_A,B,D]2 [A,B,D] | %13
 [G,B,_E]2[K:bass] [G,B,E] [^F,B,=E]2 [F,B,E] | [F,B,F]2 [F,_EF][DF] [CE][F,B,E] | %15
 [F,A,_E]2 [F,A,E] .[B,,B,]3 |] %16
V:3
 x6 | x6 | x6 | .D3 z3 | x6 | x6 | x6 |[M:15/16] x15/2 |[M:3/4] z2 z .D3 | x6 | x6 | x6 | x6 | x6 | %14
 x6 | x6 |] %16
V:4
 x6 | x6 | x6 | x6 | x6 | x6 | z3 .[C,C]3 |[M:15/16] x15/2 |[M:3/4] x6 | x6 | x6 | x6 | x6 | %13
 x2[K:bass] x4 | z2 z .F,3 | x6 |] %16

